img/discount/U.svg

<svg width="86" height="84" viewBox="0 0 86 84" fill="none" xmlns="http://www.w3.org/2000/svg">
<path opacity="0.2" d="M68.8499 4.88089L57.7487 3.28775V0.0202947L85.9381 0V3.26745L75.324 4.88089L75.3646 54.2986C75.3646 58.0836 74.8978 61.7569 73.9541 65.3085C73.0104 68.8702 71.3462 72.0261 68.9616 74.7861C66.5769 77.5462 63.3196 79.7685 59.1896 81.453C55.0597 83.1374 49.8236 83.9898 43.4916 84C32.5122 84.0101 24.2928 81.5443 18.8437 76.5822C13.3844 71.6303 10.6649 64.6083 10.6547 55.5264L10.6142 4.94177L0 3.34863V0.0811789L33.0703 0.0507368V3.31819L22.4663 4.92148L22.5069 54.5827C22.5069 57.9517 22.9128 61.0263 23.7246 63.8067C24.5262 66.5769 25.8048 68.9514 27.5501 70.9302C29.2955 72.9089 31.5583 74.4208 34.3387 75.4863C37.1191 76.5518 40.4779 77.0896 44.4252 77.0795C48.748 77.0795 52.4416 76.5416 55.5264 75.466C58.6112 74.4006 61.1481 72.8886 63.137 70.9606C65.1259 69.0224 66.5871 66.6784 67.5105 63.9285C68.4339 61.1684 68.8905 58.1242 68.8905 54.7958L68.8499 4.88089Z" fill="#FFD32E"/>
</svg>

<svg width="86" height="84" fill="none" xmlns="http://www.w3.org/2000/svg"><path opacity=".2" d="M68.85 4.88L57.749 3.289V.02L85.939 0v3.267L75.323 4.881l.04 49.418c0 3.785-.466 7.458-1.41 11.01-.944 3.561-2.608 6.717-4.992 9.477-2.385 2.76-5.642 4.983-9.772 6.667-4.13 1.684-9.366 2.537-15.698 2.547-10.98.01-19.2-2.456-24.648-7.418-5.46-4.952-8.18-11.974-8.19-21.056l-.04-50.584L0 3.349V.08L33.07.05v3.267L22.466 4.921l.04 49.662c0 3.369.407 6.443 1.219 9.224.801 2.77 2.08 5.144 3.825 7.123s4.008 3.49 6.789 4.556c2.78 1.066 6.139 1.604 10.086 1.593 4.323 0 8.017-.537 11.101-1.613 3.085-1.065 5.622-2.577 7.611-4.505 1.989-1.939 3.45-4.283 4.373-7.032.924-2.76 1.38-5.805 1.38-9.133L68.85 4.88z" fill="#FFD32E"/></svg>
